X: 7
T: The Home Ruler
R: hornpipe
M: 4/4
L: 1/8
K: Dmaj
D2FA DAFA|dfed A-BdB|A3B AFED|E-FED BAFE|
D2FA DAFA|dfed A-BdB|A2AB AFED|1E-FED D2FA:|2E-FED D4||
Addc defg|a2ba afed|e-fed BA (3Bcd|e-fed BAFA|
d3c defg|a3b afed|e-fed BAdB|1AFED D4:|2AFED D2FA||


Tune 310	Setting 310

